    Figure  17.9 
(
e=Pbind(
\degree, Pwhite(-3, 7),
\dur, 0.25,
\stepsPerOctave, 21,
\sustain, 1.1,
\scale, [0, 4, 8, 11, 14, 17]
).play;
)
//////////////////////////////////////////////////////

