Figure 17.21 

(
Pbind(
\degree, Pwhite(0, 18),
\dur, 0.3,
\sustain, 1.0,
\amp, 0.5,
\sustain, 1.1,
\instrument, \tone2,
\stepsPerOctave,  18.809
).play;
)
//////////////////////////////////////////////////////


